!!!COM: Mozart, Wolfgang Amadeus
!!!OTL: String Quartet No. 22 in B-flat Major
!!!OMD: Allegro
!!!OMV: 1
!!!SCT1: K<sup>1</sup> 589
!!!SCA: Chronologisch-thematisches Verzeichnis sämtlicher Tonwerke Wolfgang Amade Mozarts (L. von Köchel; 1862, 2/1905, 3/1937, 1947)
!!!SCT2: K<sup>6</sup> 589
!!!YOR: Breitkopf & Härtel Edition
!!!ENC: Frances Bennion
!!!CDT: 1756/1/27/-1791/12/5/
!!!OCY: Österreich
!!!YEC: Copyright (c) 1994, 2000 Center for Computer Assisted Research in the Humanities
!!!YEM: Rights to all derivative editions reserved.
!!!YEM: Refer to licensing agreement for further details.
!!!YEN: United States of America
**kern	**kern	**kern	**kern
*k[b-e-]	*k[b-e-]	*k[b-e-]	*k[b-e-]
*B-:	*B-:	*B-:	*B-:
*clefC	*clefF	*clefG	*clefG
*M3/4	*M3/4	*M3/4	*M3/4
2.r	2.r	2dd	2ff
.	.	4cc	8ee-
.	.	.	16dd
.	.	.	16ee-
=2	=2	=2	=2
2.r	2f	2b-	2dd
.	8e-	4a	8cc
.	16d	.	16b-
.	16e-	.	16cc
=3	=3	=3	=3
2.r	4d	4b-	4b-
.	4d	4f	4b-
.	4d	4f	4b-
=4	=4	=4	=4
2.r	4d	4f	4b-
.	4c	4a	4cc
.	4B-	4b-	4dd
=5	=5	=5	=5
2.r	4A	4.cc	4.ee-
.	4A	.	.
.	.	8dd	8ff
.	4B-	8.b-	8.dd
.	.	16cc	16ee-
=6	=6	=6	=6
8f	4F	4a	4cc
8e	.	.	.
8f	2r	2r	2r
8e	.	.	.
8f	.	.	.
8e	.	.	.
=7	=7	=7	=7
2f	8f	2.r	2.r
.	8e	.	.
.	8f	.	.
.	8e	.	.
8e-	8f	.	.
16d	8e	.	.
16e-	.	.	.
=8	=8	=8	=8
2d	2f	2.r	8ff
.	.	.	8ee
.	.	.	8ff
.	.	.	8ee
8c	8e-	.	8ff
16B-	16d	.	8ee
16c	16e-	.	.
=9	=9	=9	=9
4B-	4d	2.r	8ff
.	.	.	8bb-
4B-	4d	.	8ddd
.	.	.	8ccc
4B-	4d	.	8bb-
.	.	.	8aa
=10	=10	=10	=10
4B-	4d	2.r	8gg
.	.	.	8ff
4c	4e-	.	8ee-
.	.	.	8dd
4d	4f	.	8cc
.	.	.	8b-
=11	=11	=11	=11
4e-	4g	2r	8cc
.	.	.	8ee-
4r	4r	.	8gg
.	.	.	8ee-
8A	4F	4e-	8cc
8c	.	.	8a
=12	=12	=12	=12
8B-	4B-	4d	4b-
8BB-	.	.	.
8BB-	2r	2r	2r
8BB-	.	.	.
8BB-	.	.	.
8BB-	.	.	.
=13	=13	=13	=13
8BB-	2.F	2.d	2.a-
8BB-	.	.	.
8BB-	.	.	.
8BB-	.	.	.
8BB-	.	.	.
8BB-	.	.	.
=14	=14	=14	=14
8BB-	4G	4e-	4g
8BB-	.	.	.
8BB-	2r	2r	2r
8BB-	.	.	.
8BB-	.	.	.
8BB-	.	.	.
=15	=15	=15	=15
8BB-	4A	4c	16ff
.	.	.	16ee-
8BB-	.	.	8r
8BB-	4c	4e-	16dd
.	.	.	16cc
8BB-	.	.	8r
8BB-	4r	4r	16b-
.	.	.	16a
8BB-	.	.	8r
=16	=16	=16	=16
8BB-	4B-	4d	16gg
.	.	.	16ff
8BB-	.	.	8r
8BB-	4d	4f	16ee-
.	.	.	16dd
8BB-	.	.	8r
8BB-	4r	4r	16cc
.	.	.	16b-
8BB-	.	.	8r
=17	=17	=17	=17
8BB-	2.d	2.f	2.a-
8B-	.	.	.
8B-	.	.	.
8B-	.	.	.
8B-	.	.	.
8B-	.	.	.
=18	=18	=18	=18
8B-	4e-	4g	4g
8B-	.	.	.
8B-	2r	2r	2r
8B-	.	.	.
8B-	.	.	.
8B-	.	.	.
=19	=19	=19	=19
8B-	2e-	4a	16ddd
.	.	.	16ccc
8B-	.	.	8r
8B-	.	4cc	16bb-
.	.	.	16aa
8B-	.	.	8r
8B-	4a	4ee-	16gg
.	.	.	16ff
8B-	.	.	8r
=20	=20	=20	=20
4B-	4b-	4dd	4bb-
2r	2r	2r	2r
=21	=21	=21	=21
2.r	16f	2f	2.r
.	16e-	.	.
.	8r	.	.
.	16d	.	.
.	16c	.	.
.	8r	.	.
.	16B-	16g	.
.	16A	16a	.
.	8r	16b-	.
.	.	16cc	.
=22	=22	=22	=22
16e-	2.B-	[2.dd	4.dd
16d	.	.	.
8r	.	.	.
16c	.	.	.
16B-	.	.	.
8r	.	.	16ee-
.	.	.	16ff
16A	.	.	16gg
16G	.	.	16aa
8r	.	.	16bb-
.	.	.	16ccc
=23	=23	=23	=23
2.F#	2.A	4dd]	4ddd
.	.	4cc#	4ccc#
.	.	4cc	4ccc
=24	=24	=24	=24
4G	4d	4b-	4bb-
2F	2a-	2b	2bb
=25	=25	=25	=25
4E	4g	4cc	4ccc
4D	4f	4b-	4bb-
4C	4e	[4a	[4aa
=26	=26	=26	=26
2BB-	2d	4a]	4aa]
.	.	4g	4gg
4BB	4d	4f	4ff
=27	=27	=27	=27
4C	8G	8e	12ee
.	.	.	12cc
.	8C	4G	.
.	.	.	12ee
2r	8E	.	12gg
.	.	.	12bb-
.	8C	4G	.
.	.	.	12aa
.	8E	.	12gg
.	.	.	12ff
.	8C	[8G	.
.	.	.	12ee
=28	=28	=28	=28
2.r	8E	8G]	12dd
.	.	.	12cc
.	8C	4G	.
.	.	.	12b-
.	8E	.	12a
.	.	.	12g
.	8C	4G	.
.	.	.	12f
.	8E	.	12e
.	.	.	12d
.	8C	[8G	.
.	.	.	12c
=29	=29	=29	=29
4cc	8E	8G]	4B-
.	8C	4G	.
4ee	8E	.	2r
.	8C	4G	.
4gg	8E	.	.
.	8C	[8G	.
=30	=30	=30	=30
2bb-	8E	8G]	2.r
.	8C	4G	.
.	8E	.	.
.	8C	4G	.
8gg	8E	.	.
8ee	8C	8G	.
=31	=31	=31	=31
4ff	8F	8A	12c
.	.	.	12A
.	8C	4A	.
.	.	.	12B-
2r	8F	.	12c
.	.	.	12d
.	8C	4A	.
.	.	.	12e
.	8F	.	12f
.	.	.	12g
.	8C	[8A	.
.	.	.	12a
=32	=32	=32	=32
2.r	8F	8A]	12b-
.	.	.	12cc
.	8C	4A	.
.	.	.	12dd
.	8F	.	12ee
.	.	.	12ff
.	8C	4A	.
.	.	.	12gg
.	8F	.	12aa
.	.	.	12bb-
.	8C	[8A	.
.	.	.	12gg
=33	=33	=33	=33
4cc	8F	8A]	4ccc
.	8C	4A	.
4ff	8F	.	2r
.	8C	4A	.
4aa	8F	.	.
.	8C	[8A	.
=34	=34	=34	=34
2ccc	8F	8A]	2.r
.	8C	4A	.
.	8F	.	.
.	8C	4A	.
8aa	8F	.	.
8ff	8C	8A	.
=35	=35	=35	=35
4ee	8E	8G	12bb-
.	.	.	12ccc
.	8C	4G	.
.	.	.	12ddd
2r	8E	.	12ccc
.	.	.	12bb-
.	8C	4G	.
.	.	.	12aa
.	8E	.	12gg
.	.	.	12ff
.	8C	[8G	.
.	.	.	12ee
=36	=36	=36	=36
2.r	8E	8G]	12dd
.	.	.	12cc
.	8C	4G	.
.	.	.	12b-
.	8E	.	12a
.	.	.	12g
.	8C	4G	.
.	.	.	12f
.	8E	.	12e
.	.	.	12d
.	8C	[8G	.
.	.	.	12c
=37	=37	=37	=37
4cc	8E	8G]	4B-
.	8C	4G	.
4ee	8E	.	2r
.	8C	4G	.
4gg	8E	.	.
.	8C	[8G	.
=38	=38	=38	=38
2bb-	8E	8G]	2.r
.	8C	4G	.
.	8D	.	.
.	8C	8G	.
8gg	8B-	8c	.
8ee	8B-	8c	.
=39	=39	=39	=39
4ff	4A	4c	4cc
2r	2r	2r	4ff
.	.	.	4aa
=40	=40	=40	=40
4r	4r	4r	2ccc
4A	4c	4e-	.
4A	4e-	4f#	8aa
.	.	.	8ff#
=41	=41	=41	=41
4B-	4d	4g	4dd
2r	2r	2r	4gg
.	.	.	4bb-
=42	=42	=42	=42
4r	4r	4r	2ddd
4B	4d	4f	.
4B	4f	4a-	8aa-
.	.	.	8ff
=43	=43	=43	=43
4r	4r	4r	2ccc
4c	4f	4a	.
4c	4a	4cc	8aa
.	.	.	8ff
=44	=44	=44	=44
4r	4r	4r	2bb-
4C	4e	4g	.
4C	4g	4b-	8gg
.	.	.	8ee
=45	=45	=45	=45
4F	4f	4a	4ff
8r	4F	2r	2r
8a	.	.	.
8b-	4r	.	.
8b	.	.	.
=46	=46	=46	=46
8cc	4F	2.r	2.r
8aa	.	.	.
8gg	2r	.	.
8ff	.	.	.
8ee	.	.	.
8dd	.	.	.
=47	=47	=47	=47
8cc	4r	2.r	2.r
8b	.	.	.
8r	4E	.	.
8b-	.	.	.
8r	4F	.	.
8a	.	.	.
=48	=48	=48	=48
8g	4B-	2.r	2.r
8b-	.	.	.
8dd	2r	.	.
8ff#	.	.	.
8gg	.	.	.
8bb-	.	.	.
=49	=49	=49	=49
8ff	4r	2.r	2.r
8ee	.	.	.
8r	4c	.	.
8ee	.	.	.
8r	4B-	.	.
8dd	.	.	.
=50	=50	=50	=50
8cc	2.A	2.r	2.r
8dd	.	.	.
8ee	.	.	.
8ff	.	.	.
8gg	.	.	.
8aa	.	.	.
=51	=51	=51	=51
8bb-	2.E	2.r	2.r
8gg	.	.	.
8ee	.	.	.
8cc	.	.	.
8b-	.	.	.
8g	.	.	.
=52	=52	=52	=52
8a	4F	2r	2.r
8ff	.	.	.
8f#	2B-	.	.
8g	.	.	.
8b-	.	8d	.
8dd	.	8B-	.
=53	=53	=53	=53
4f	4c	4A	4.r
4e	4C	4G	.
.	.	.	8a
4r	4r	4r	8b-
.	.	.	8b
=54	=54	=54	=54
2.r	4f	4a	8cc
.	.	.	8aa
.	2r	2r	8gg
.	.	.	8ff
.	.	.	8ee
.	.	.	8dd
=55	=55	=55	=55
2.r	4r	4r	8cc
.	.	.	8b
.	4E	4g	8r
.	.	.	8b-
.	4F	4f	8r
.	.	.	8a
=56	=56	=56	=56
2.r	4B-	4d	8g
.	.	.	8b-
.	2r	2r	8dd
.	.	.	8ff#
.	.	.	8gg
.	.	.	8bb-
=57	=57	=57	=57
2.r	4r	4r	8ff
.	.	.	8ee
.	4c	4g	8r
.	.	.	8ee
.	4B-	4e	8r
.	.	.	8dd
=58	=58	=58	=58
2.r	2.A	2.f	8cc
.	.	.	8dd
.	.	.	8ee
.	.	.	8ff
.	.	.	8gg
.	.	.	8aa
=59	=59	=59	=59
2.r	4r	4r	8ccc
.	.	.	8bb
.	4e	2cc	8r
.	.	.	8bb-
.	4f	.	8r
.	.	.	8aa
=60	=60	=60	=60
2.r	4B-	4b-	8r
.	.	.	8gg
.	4c	4a	8r
.	.	.	8ff
.	4C	4g	8r
.	.	.	8ee
=61	=61	=61	=61
2.r	2.r	12f	2ccc
.	.	12a	.
.	.	12cc	.
.	.	12ff	.
.	.	12aa	.
.	.	12ff	.
.	.	12cc	8bb-
.	.	12ee	.
.	.	.	16aa
.	.	12cc	.
.	.	.	16bb-
=62	=62	=62	=62
2.r	12D	2ff	2aa
.	12F	.	.
.	12A	.	.
.	12d	.	.
.	12f	.	.
.	12d	.	.
.	12A	8ee	8gg
.	12c#	.	.
.	.	16dd	16ff
.	12A	.	.
.	.	16ee	16gg
=63	=63	=63	=63
12BB-	4d	2dd	2ff
12D	.	.	.
12F	.	.	.
12B-	4f	.	.
12d	.	.	.
12B-	.	.	.
12F	4a	8cc	8ee-
12A	.	.	.
.	.	16b-	16dd
12F	.	.	.
.	.	16cc	16ee-
=64	=64	=64	=64
4B-	2dd	2b-	12dd
.	.	.	12gg
.	.	.	12bb-
4BB-	.	.	12ddd
.	.	.	12bb-
.	.	.	12gg
4D	8cc	8a	12ff#
.	.	.	12dd
.	16b	16g	.
.	.	.	12ee
.	16cc	16a	.
=65	=65	=65	=65
4GG	4b	2g	12ff
.	.	.	12gg
.	.	.	12ff
4C	8b-	.	12ee
.	.	.	12cc
.	16a	.	.
.	.	.	12dd
.	16b-	.	.
4FF	4a	[4f	12ee-
.	.	.	12ff
.	.	.	12ee-
=66	=66	=66	=66
4BB-	8.b-	12f]	12dd
.	.	12dd	12bb-
.	.	12b-	12gg
.	16d	.	.
4C	4c	12a	12ff
.	.	12cc	12aa
.	.	12a	12ff
4CC	4B-	12g	12ee
.	.	12b-	12gg
.	.	12g	12ee
=67	=67	=67	=67
12FF	12A	12a	4ff
12F	12ff	12aa	.
12F	12ee	12gg	.
12F	12dd	12ff	2ccc
12F	12cc	12ee	.
12F	12b-	12dd	.
12F	12a	12cc	.
12F	12g	12b-	.
12F	12f	12a	.
=68	=68	=68	=68
2.F	2.e	2.g	12bb-
.	.	.	12gg
.	.	.	12ff
.	.	.	12ee
.	.	.	12dd
.	.	.	12cc
.	.	.	12b-
.	.	.	12a
.	.	.	12g
=69	=69	=69	=69
12FF	12f	12a	4f
12F	12ff	12aa	.
12F	12ee	12gg	.
12F	12dd	12ff	2ccc
12F	12cc	12ee	.
12F	12b-	12dd	.
12F	12a	12cc	.
12F	12g	12b-	.
12F	12f	12a	.
=70	=70	=70	=70
2.F	2e	2g	12bb-
.	.	.	12gg
.	.	.	12ff
.	.	.	12ee
.	.	.	12dd
.	.	.	12cc
.	12G	4e	12b-
.	12A	.	12a
.	12B-	.	12g
=71	=71	=71	=71
4F	4A	4f	4f
4FF	4f	4ff 4cc 4f	4ff 4a
4r	4r	4r	4r
=72	=72	=72	=72
12FF	12f	12ff	4f
12F	12ff	12aa-	.
12F	12ee-	12gg	.
12F	12dd-	12ff	2ccc
12F	12cc	12ee-	.
12F	12b-	12dd-	.
12F	12a-	12cc	.
12F	12g	12b-	.
12F	12f	12a-	.
=73	=73	=73	=73
2.F	2.e	2.g	12bb-
.	.	.	12gg
.	.	.	12ff
.	.	.	12ee
.	.	.	12dd-
.	.	.	12cc
.	.	.	12b-
.	.	.	12a-
.	.	.	12g
=74	=74	=74	=74
12F	12f	12a-	4f
12FF	12f	12a-	.
12FF	12e-	12g	.
12FF	12d-	12f	2ccc
12FF	12c	12e-	.
12FF	12B-	12d-	.
12FF	12A-	12c	.
12FF	12G	12B-	.
12FF	12F	12A-	.
=75	=75	=75	=75
2.FF	2.E	3..G	12bb-
.	.	.	12gg
.	.	.	12ff
.	.	.	12ee
.	.	.	12dd-
.	.	.	12cc
.	.	.	12b-
.	.	12A-	12a-
.	.	12B-	12g
=76	=76	=76	=76
4FF	4F	4A-	4f
4F	4c	4a-	4ff
4r	4r	4r	4r
=77	=77	=77	=77
2.r	2.r	2.r	4ff
.	.	.	4gg-
.	.	.	4gg
=78	=78	=78	=78
2.r	2.r	2.r	4aa-
.	.	.	4aa-
.	.	.	4aa-
=79	=79	=79	=79
2.r	4cc	4ee-	[2.aa-
.	4dd-	4ee	.
.	4dd	4ff	.
=80	=80	=80	=80
2.r	4ee-	4gg-	8aa-]
.	.	.	8gg
.	4ee-	4gg-	8aa-
.	.	.	8gg
.	4ee-	4gg-	8aa-
.	.	.	8gg
=81	=81	=81	=81
2aa-	4ee-	4gg-	4aa-
.	4dd-	4ff	4bb-
8gg-	4a-	4ee-	4ccc
16ff	.	.	.
16gg-	.	.	.
=82	=82	=82	=82
2ff	[2.a-	2dd-	4ddd-
.	.	.	4dd-
8ee-	.	4cc	4gg-
16dd-	.	.	.
16ee-	.	.	.
=83	=83	=83	=83
4dd-	4a-]	4dd-	4ff
4dd-	2r	4dd-	4ff
4dd-	.	4dd-	4ff
=84	=84	=84	=84
4dd-	2.r	2dd-	2ff
4ee-	.	.	.
4ff	.	4cc	4ee-
=85	=85	=85	=85
2gg-	2.r	4b-	4dd-
.	.	4cc	4ee-
4ff	.	4dd-	4ff
=86	=86	=86	=86
4ee-	2.r	2ee-	2gg-
4ff	.	.	.
4gg-	.	4dd-	4ff
=87	=87	=87	=87
2aa-	2.r	4cc	4ee-
.	.	4dd-	4ff
4gg-	.	4ee-	4gg-
=88	=88	=88	=88
4ff	2.r	2ff	2aa-
4gg-	.	.	.
4aa-	.	4ee-	4gg-
=89	=89	=89	=89
[2.bb-	2B-	4dd	4ff
.	.	4ee-	4gg-
.	8A-	4ff	4aa-
.	16G-	.	.
.	16A-	.	.
=90	=90	=90	=90
4bb-]	2G-	8ee-	2bb-
.	.	8a	.
2r	.	8b-	.
.	.	8a	.
.	8F	8b-	8aa-
.	16E-	8a	16gg-
.	16F	.	16aa-
=91	=91	=91	=91
2.r	2E-	4b-	2gg-
.	.	4b-	.
.	8D-	4b	8ff
.	16C	.	16ee
.	16D-	.	16ff
=92	=92	=92	=92
2.r	4C	4cc	8ee
.	.	.	8b
.	4e	4g	8cc
.	.	.	8b
.	[4g	[4b-	8cc
.	.	.	8b
=93	=93	=93	=93
2F	4g]	4b-]	2cc
.	4f	4a-	.
8E-	4r	4g	4cc#
16D	.	.	.
16E-	.	.	.
=94	=94	=94	=94
4D	8A	4g	4dd
.	8c#	.	.
2r	8d	4f#	4a
.	8c#	.	.
.	8d	[4a	[4cc
.	8c#	.	.
=95	=95	=95	=95
2G	2d	4a]	4cc]
.	.	4g	4b-
8F	[4dd	4r	4a
16E-	.	.	.
16F	.	.	.
=96	=96	=96	=96
4E-	4dd]	4r	4g
4e-	4cc	4g	4r
4r	8e-	[4gg	[4a
.	16d	.	.
.	16e-	.	.
=97	=97	=97	=97
4r	4d	4gg]	4a]
4D	4dd	4ff	4b-
[4d	4r	8f	[4bb-
.	.	16e-	.
.	.	16f	.
=98	=98	=98	=98
4d]	4r	4e-	4bb-]
4c	4F#	4ee-	4aa
4r	[4ee-	[4f#	8c
.	.	.	16B-
.	.	.	16c
=99	=99	=99	=99
4r	4ee-]	4f#]	4B-
4BB-	4dd	4g	4b-
8B-	4r	4r	4r
16A	.	.	.
16B-	.	.	.
=100	=100	=100	=100
[2.E-	2B-	4r	2gg
.	.	[2c#	.
.	4G	.	4bb-
=101	=101	=101	=101
2.E-_	4A	4c#]	4aa
.	4B-	[2c#	4gg
.	4G	.	4bb-
=102	=102	=102	=102
2.E-_	4A	4c#]	4aa
.	4B-	[2c#	4gg
.	4G	.	4bb-
=103	=103	=103	=103
2E-]	4A	4c#]	4aa
.	4B-	4c#	4gg
4EE-	4G	4g	4cc#
=104	=104	=104	=104
12DD	12A	12f#	4dd
12D	12d	12ff#	.
12D	12e	12gg	.
12D	12f#	12aa	2aa
12D	12a	12ff#	.
12D	12f#	12dd	.
12D	12dd	12ff#	.
12D	12a	12dd	.
12D	12f#	12a	.
=105	=105	=105	=105
2.D	2.c#	2.e	12bb-
.	.	.	12gg
.	.	.	12ee
.	.	.	12cc#
.	.	.	12ee
.	.	.	12g
.	.	.	12b-
.	.	.	12a
.	.	.	12g
=106	=106	=106	=106
12DD	12d	12f#	4f#
12D	12d	12ff#	.
12D	12e	12gg	.
12D	12f#	12aa	2aa
12D	12a	12ff#	.
12D	12f#	12dd	.
12D	12dd	12ff#	.
12D	12a	12dd	.
12D	12f#	12a	.
=107	=107	=107	=107
2.D	2.c#	2.e	12bb-
.	.	.	12gg
.	.	.	12ee
.	.	.	12cc#
.	.	.	12ee
.	.	.	12g
.	.	.	12b-
.	.	.	12a
.	.	.	12g
=108	=108	=108	=108
12DD	4d	2dd	4f#
12FF#	.	.	.
12AA	.	.	.
12D	2r	.	2r
12F#	.	.	.
12D	.	.	.
12DD	.	8cc	.
12FF#	.	.	.
.	.	16b	.
12DD	.	.	.
.	.	16cc	.
=109	=109	=109	=109
4GG	12G	4b	2gg
.	12B	.	.
.	12d	.	.
2r	12g	2r	.
.	12b	.	.
.	12g	.	.
.	12G	.	8ff
.	12B	.	.
.	.	.	16ee
.	12G	.	.
.	.	.	16ff
=110	=110	=110	=110
12CC	4c	2cc	4ee
12EE	.	.	.
12GG	.	.	.
12C	2r	.	2r
12E	.	.	.
12C	.	.	.
12CC	.	8b-	.
12EE	.	.	.
.	.	16a	.
12CC	.	.	.
.	.	16b-	.
=111	=111	=111	=111
4FF	12F	4a	2ff
.	12A	.	.
.	12c	.	.
2r	12f	2r	.
.	12a	.	.
.	12f	.	.
.	12F	.	8ee-
.	12A	.	.
.	.	.	16dd
.	12F	.	.
.	.	.	16ee-
=112	=112	=112	=112
2.r	4B-	12B-	2bb-
.	.	12d	.
.	.	12f	.
.	2r	12b-	.
.	.	12dd	.
.	.	12b-	.
.	.	12B-	8aa-
.	.	12d	.
.	.	.	16gg
.	.	12B-	.
.	.	.	16aa-
=113	=113	=113	=113
2r	12E-	2ee-	2gg
.	12G	.	.
.	12B-	.	.
.	12e-	.	.
.	12g	.	.
.	12e-	.	.
12G	12B	8dd	8ff
12B	12d	.	.
.	.	16cc	16ee
12G	12B	.	.
.	.	16dd	16ff
=114	=114	=114	=114
12c	4g	4cc	4ee
12e	.	.	.
12c	.	.	.
12F	12A	8cc	8ee-
12A	12c	.	.
.	.	16b-	16dd
12F	12A	.	.
.	.	16cc	16ee-
12B-	4f	4b-	4dd
12d	.	.	.
12B-	.	.	.
=115	=115	=115	=115
2e-	2e-	12g	12cc
.	.	12cc	12ee-
.	.	12dd	12ff
.	.	12ee-	12gg
.	.	12dd	12ff
.	.	12cc	12ee-
4e	4e	12b-	12dd
.	.	12a	12cc
.	.	12g	12b-
=116	=116	=116	=116
4f	4f	4f	12a
.	.	.	12cc
.	.	.	12b-
2r	2r	2r	12a
.	.	.	12ee-
.	.	.	12dd
.	.	.	12cc
.	.	.	12gg
.	.	.	12ff
=117	=117	=117	=117
8f	2cc	2ee-	4ee-
8e	.	.	.
8f	.	.	2r
8e	.	.	.
8f	8a	8cc	.
8e	16g	16b-	.
.	16a	16cc	.
=118	=118	=118	=118
4f	4b-	4dd	12f
.	.	.	12b-
.	.	.	12a
2r	2r	2r	12b-
.	.	.	12dd
.	.	.	12cc#
.	.	.	12dd
.	.	.	12ff
.	.	.	12ee
=119	=119	=119	=119
8f	2dd	2ff	4ff
8e	.	.	.
8f	.	.	2r
8e	.	.	.
8f	8b-	8dd	.
8e	16a	16cc	.
.	16b-	16dd	.
=120	=120	=120	=120
4f	4g	4ee	12ee
.	.	.	12gg
.	.	.	12ff
2r	2r	2r	12ee
.	.	.	12bb-
.	.	.	12aa
.	.	.	12gg
.	.	.	12ddd
.	.	.	12ccc
=121	=121	=121	=121
8f	2g	2bb-	4bb-
8e	.	.	.
8f	.	.	2r
8e	.	.	.
8f	4b-	8gg	.
8e	.	16ff	.
.	.	16gg	.
=122	=122	=122	=122
4f	4a	4ff	12ff
.	.	.	12aa
.	.	.	12gg
2r	2r	2r	12ff
.	.	.	12ccc
.	.	.	12bb-
.	.	.	12aa
.	.	.	12gg
.	.	.	12ff
=123	=123	=123	=123
4f	4a	4cc	12ee-
.	.	.	12gg
.	.	.	12ff
2r	2r	2r	12ee-
.	.	.	12ff
.	.	.	12ee-
.	.	.	12dd
.	.	.	12cc
.	.	.	12b-
=124	=124	=124	=124
4F	4c	4e-	12a
.	.	.	12cc
.	.	.	12b-
2r	2r	2r	12a
.	.	.	12ee-
.	.	.	12cc
.	.	.	12a
.	.	.	12g
.	.	.	12f
=125	=125	=125	=125
4F	4A	4c	12e-
.	.	.	12g
.	.	.	12f
2r	2r	2r	12e-
.	.	.	12f
.	.	.	12e-
.	.	.	12d
.	.	.	12c
.	.	.	12B-
=126	=126	=126	=126
[2.FF	[2.c	[2.e-	12A
.	.	.	12c
.	.	.	12B-
.	.	.	12A
.	.	.	12e-
.	.	.	12d
.	.	.	12c
.	.	.	12g
.	.	.	12f
=127	=127	=127	=127
2.FF]	2.c]	2.e-]	12e-
.	.	.	12cc
.	.	.	12b-
.	.	.	12a
.	.	.	12ee-
.	.	.	12dd
.	.	.	12cc
.	.	.	12gg
.	.	.	12ff
=128	=128	=128	=128
2.r	4r	4cc	4ee-
.	4f	2r	2r
.	4f	.	.
=129	=129	=129	=129
2.r	4r	4cc#	4ee
.	4f	2r	2r
.	4f	.	.
=130	=130	=130	=130
2.r	2.r	8dd	8ff
.	.	8cc#	8ee
.	.	8dd	8ff
.	.	8cc#	8ee
.	.	8dd	8ff
.	.	8cc#	8ee
=131	=131	=131	=131
2.r	8f	2dd	2ff
.	8e	.	.
.	8f	.	.
.	8e	.	.
.	8f	8cc	8ee-
.	8e	16b-	16dd
.	.	16cc	16ee-
=132	=132	=132	=132
2.r	2f	2b-	2dd
.	8e-	8a	8cc
.	16d	16g	16b-
.	16e-	16a	16cc
=133	=133	=133	=133
2.r	4d	4b-	4b-
.	4d	4f	4b-
.	4d	4f	4b-
=134	=134	=134	=134
2.r	4d	4f	4b-
.	4c	4a	4cc
.	4B-	4b-	4dd
=135	=135	=135	=135
2.r	4A	4.cc	4.ee-
.	4A	.	.
.	.	8dd	8ff
.	4B-	8.b-	8.dd
.	.	16cc	16ee-
=136	=136	=136	=136
8f	4F	4a	4cc
8e	.	.	.
8f	2r	2r	2r
8e	.	.	.
8f	.	.	.
8e	.	.	.
=137	=137	=137	=137
2f	8f	2.r	2.r
.	8e	.	.
.	8f	.	.
.	8e	.	.
8e-	8f	.	.
16d	8e	.	.
16e-	.	.	.
=138	=138	=138	=138
2d	2f	2.r	8ff
.	.	.	8ee
.	.	.	8ff
.	.	.	8ee
8c	8e-	.	8ff
16B-	16d	.	8ee
16c	16e-	.	.
=139	=139	=139	=139
4B-	4d	2.r	8ff
.	.	.	8bb-
4B-	4d	.	8ddd
.	.	.	8ccc
4B-	4d	.	8bb-
.	.	.	8aa
=140	=140	=140	=140
4B-	4d	2.r	8gg
.	.	.	8ff
4c	4e-	.	8ee-
.	.	.	8dd
4d	4f	.	8cc
.	.	.	8b-
=141	=141	=141	=141
4e-	4g	2r	8cc
.	.	.	8ee-
4r	4r	.	8gg
.	.	.	8ee-
8A	4F	4e-	8cc
8c	.	.	8a
=142	=142	=142	=142
8B-	4B-	4d	4b-
8BB-	.	.	.
8BB-	2r	2r	2r
8BB-	.	.	.
8BB-	.	.	.
8BB-	.	.	.
=143	=143	=143	=143
8BB-	2.F	2.d	2.a-
8BB-	.	.	.
8BB-	.	.	.
8BB-	.	.	.
8BB-	.	.	.
8BB-	.	.	.
=144	=144	=144	=144
8BB-	4G	4e-	4g
8BB-	.	.	.
8BB-	2r	2r	2r
8BB-	.	.	.
8BB-	.	.	.
8BB-	.	.	.
=145	=145	=145	=145
8BB-	4A	4c	16ff
.	.	.	16ee-
8BB-	.	.	8r
8BB-	4c	4e-	16dd
.	.	.	16cc
8BB-	.	.	8r
8BB-	4r	4r	16b-
.	.	.	16a
8BB-	.	.	8r
=146	=146	=146	=146
8BB-	4B-	4d	16gg
.	.	.	16ff
8BB-	.	.	8r
8BB-	4d	4f	16ee-
.	.	.	16dd
8BB-	.	.	8r
8BB-	4r	4r	16cc
.	.	.	16b-
8BB-	.	.	8r
=147	=147	=147	=147
8BB-	2.d	2.f	2.a-
8B-	.	.	.
8B-	.	.	.
8B-	.	.	.
8B-	.	.	.
8B-	.	.	.
=148	=148	=148	=148
8B-	4e-	4g	4g
8B-	.	.	.
8B-	2r	2r	2r
8B-	.	.	.
8B-	.	.	.
8B-	.	.	.
=149	=149	=149	=149
8B-	2e-	4a	16ddd
.	.	.	16ccc
8B-	.	.	8r
8B-	.	4cc	16bb-
.	.	.	16aa
8B-	.	.	8r
8B-	4a	4ee-	16gg
.	.	.	16ff
8B-	.	.	8r
=150	=150	=150	=150
4B-	4b-	4dd	4bb-
2r	2r	2r	2r
=151	=151	=151	=151
2.r	16f	2f	2.r
.	16e-	.	.
.	8r	.	.
.	16d	.	.
.	16c	.	.
.	8r	.	.
.	16B-	16g	.
.	16A	16a	.
.	8r	16b-	.
.	.	16cc	.
=152	=152	=152	=152
16e-	2.B-	[2.dd	4.dd
16d	.	.	.
8r	.	.	.
16c	.	.	.
16B-	.	.	.
8r	.	.	16ee-
.	.	.	16ff
16A	.	.	16gg
16G	.	.	16aa
8r	.	.	16bb-
.	.	.	16ccc
=153	=153	=153	=153
[3..F#	[3..A	4dd]	4ddd
.	.	4cc#	4ccc#
.	.	4cc	4ccc
24F#]	24A]	.	.
24d	24d	.	.
24e	24e	.	.
24f#	24f#	.	.
=154	=154	=154	=154
4g	4g	4b-	4bb-
4f#	4f#	2b	2bb
4f	4f	.	.
=155	=155	=155	=155
4e-	4e-	4cc	4ccc
2e	2e	4b	4bb
.	.	4b-	4bb-
=156	=156	=156	=156
4f	4f	4a-	4aa-
4e	4e	2a	2aa
4e-	4e-	.	.
=157	=157	=157	=157
4d-	4d-	4b-	4bb-
2d	2d	4a	4aa
.	.	[4a-	[4aa-
=158	=158	=158	=158
4e-	2e-	4a-]	4aa-]
4E-	.	4g	4gg
4F	8.d	[4f	[4ff
.	16c	.	.
=159	=159	=159	=159
2G	2B-	4f]	4ff]
.	.	4e-	4ee-
4F	4A	[4d	[4dd
=160	=160	=160	=160
2E-	2G	4d]	4dd]
.	.	4c	4cc
4E	[4c	4B-	4b-
=161	=161	=161	=161
8F	12c]	4A	4a
.	12f	.	.
8FF	.	.	.
.	12a	.	.
8AA	12cc	2r	2r
.	12ee-	.	.
8FF	.	.	.
.	12dd	.	.
8AA	12cc	.	.
.	12b-	.	.
8FF	.	.	.
.	12a	.	.
=162	=162	=162	=162
8AA	12g	2.r	2.r
.	12f	.	.
8FF	.	.	.
.	12e-	.	.
8AA	12d	.	.
.	12c	.	.
8FF	.	.	.
.	12B-	.	.
8AA	12A	.	.
.	12G	.	.
8C	.	.	.
.	12F	.	.
=163	=163	=163	=163
4FF	4E-	4f	8r
.	.	.	8A
2r	2r	4a	8c
.	.	.	8A
.	.	4cc	8e-
.	.	.	8c
=164	=164	=164	=164
4F	2.r	2ee-	8A
.	.	.	8c
2r	.	.	8A
.	.	.	8c
.	.	8cc	8e-
.	.	8a	8c
=165	=165	=165	=165
8BB-	12F	4b-	4d
.	12D	.	.
8FF	.	.	.
.	12E-	.	.
8BB-	12F	2r	2r
.	12G	.	.
8FF	.	.	.
.	12A	.	.
8BB-	12B-	.	.
.	12c	.	.
8FF	.	.	.
.	12d	.	.
=166	=166	=166	=166
8BB-	12e-	2.r	2.r
.	12f	.	.
8FF	.	.	.
.	12g	.	.
8BB-	12a	.	.
.	12b-	.	.
8FF	.	.	.
.	12cc	.	.
8BB-	12dd	.	.
.	12ee-	.	.
8D	.	.	.
.	12cc	.	.
=167	=167	=167	=167
4FF	4ff	4f	8r
.	.	.	8B-
2r	2r	4b-	8d
.	.	.	8B-
.	.	4dd	8f
.	.	.	8d
=168	=168	=168	=168
4F	2.r	2ff	8b-
.	.	.	8f
2r	.	.	8d
.	.	.	8f
.	.	8dd	8B-
.	.	8b-	8d
=169	=169	=169	=169
8C	12ee-	4a	4e-
.	12ff	.	.
8FF	.	.	.
.	12gg	.	.
8C	12ff	2r	2r
.	12ee-	.	.
8FF	.	.	.
.	12dd	.	.
8C	12cc	.	.
.	12b-	.	.
8FF	.	.	.
.	12a	.	.
=170	=170	=170	=170
8C	12g	2.r	2.r
.	12f	.	.
8FF	.	.	.
.	12e-	.	.
8C	12d	.	.
.	12c	.	.
8FF	.	.	.
.	12B-	.	.
8C	12A	.	.
.	12G	.	.
8AA	.	.	.
.	12F	.	.
=171	=171	=171	=171
4FF	4E-	4f	8r
.	.	.	8A
2r	2r	4a	8c
.	.	.	8A
.	.	4cc	8e-
.	.	.	8c
=172	=172	=172	=172
2.r	2F	2ee-	8A
.	.	.	8c
.	.	.	8A
.	.	.	8c
.	4E-	8cc	8f
.	.	8a	8f
=173	=173	=173	=173
4F	4D	4b-	4f
4B-	2r	2r	2r
4d	.	.	.
=174	=174	=174	=174
2f	4r	4r	4r
.	4D	4B	4a-
8d	4D	4a-	4f
8B	.	.	.
=175	=175	=175	=175
4G	4E-	4g	4e-
4c	2r	2r	2r
4e-	.	.	.
=176	=176	=176	=176
2g	4r	4r	4r
.	4E	4B-	4d-
8d-	4E	4g	4b-
8B-	.	.	.
=177	=177	=177	=177
2f	4r	4r	4r
.	4F	4B-	4d
8d	4F	4d	4f
8B-	.	.	.
=178	=178	=178	=178
2e-	4r	4r	4r
.	4F	4A	4c
8c	4F	4c	4e-
8A	.	.	.
=179	=179	=179	=179
4B-	4B-	4B-	4d
4BB-	2r	2r	8r
.	.	.	8dd
4r	.	.	8ee-
.	.	.	8ee
=180	=180	=180	=180
2.r	2.r	4b-	8ff
.	.	.	8ddd
.	.	2r	8ccc
.	.	.	8bb-
.	.	.	8aa
.	.	.	8gg
=181	=181	=181	=181
2.r	2.r	4r	8ff
.	.	.	8ee
.	.	4A	8r
.	.	.	8ee-
.	.	4B-	8r
.	.	.	8dd
=182	=182	=182	=182
2.r	2.r	4e-	8cc
.	.	.	8ee-
.	.	2r	8gg
.	.	.	8bb
.	.	.	8ccc
.	.	.	8eee-
=183	=183	=183	=183
2.r	2.r	4r	8bb-
.	.	.	8aa
.	.	4f	8r
.	.	.	8aa
.	.	4e-	8r
.	.	.	8gg
=184	=184	=184	=184
2.r	2.r	2.d	8ff
.	.	.	8gg
.	.	.	8aa
.	.	.	8bb-
.	.	.	8ccc
.	.	.	8ddd
=185	=185	=185	=185
2.r	2.r	2.A	8eee-
.	.	.	8ccc
.	.	.	8aa
.	.	.	8ff
.	.	.	8ee-
.	.	.	8cc
=186	=186	=186	=186
2.r	2.r	4B-	8dd
.	.	.	8bb-
.	.	2e-	8b
.	.	.	8cc
.	.	.	8ee-
.	.	.	8gg
=187	=187	=187	=187
2.r	4.r	4f	4b-
.	.	2r	4a
.	8d	.	.
.	8e-	.	4r
.	8e	.	.
=188	=188	=188	=188
4B-	8f	4d	2.r
.	8dd	.	.
2r	8cc	2r	.
.	8b-	.	.
.	8a	.	.
.	8g	.	.
=189	=189	=189	=189
4r	8f	4r	2.r
.	8e	.	.
4AA	8r	4c	.
.	8e-	.	.
4BB-	8r	4B-	.
.	8d	.	.
=190	=190	=190	=190
4E-	8c	4G	2.r
.	8e-	.	.
2r	8g	2r	.
.	8b	.	.
.	8cc	.	.
.	8ee-	.	.
=191	=191	=191	=191
4r	8b-	4r	2.r
.	8a	.	.
4F	8r	4c	.
.	8a	.	.
4E-	8r	4A	.
.	8g	.	.
=192	=192	=192	=192
2.D	8f	2.B-	2.r
.	8g	.	.
.	8a	.	.
.	8b-	.	.
.	8cc	.	.
.	8dd	.	.
=193	=193	=193	=193
4r	8ff	4r	2.r
.	8ee	.	.
4A	8r	2f	.
.	8ee-	.	.
4B-	8r	.	.
.	8dd	.	.
=194	=194	=194	=194
4E-	8r	4e-	2.r
.	8cc	.	.
4F	8r	4d	.
.	8b-	.	.
4FF	8r	4c	.
.	8a	.	.
=195	=195	=195	=195
8B-	[2.b-	2.d	2.ff
8d	.	.	.
8c	.	.	.
8B-	.	.	.
8A	.	.	.
8G	.	.	.
=196	=196	=196	=196
8F	4b-]	4c	4gg
8E	.	.	.
8r	4cc	2f	4aa
8E-	.	.	.
8r	4dd	.	4bb-
8D	.	.	.
=197	=197	=197	=197
8r	2b-	4e-	4gg
8E-	.	.	.
8r	.	4d	4ff
8F	.	.	.
8r	4e-	4c	4a
8FF	.	.	.
=198	=198	=198	=198
4BB-	4d	12B-	2ff
.	.	12d	.
.	.	12f	.
2r	2r	12b-	.
.	.	12dd	.
.	.	12b-	.
.	.	12f	8ee-
.	.	12a	.
.	.	.	16dd
.	.	12f	.
.	.	.	16ee-
=199	=199	=199	=199
2.r	12G	2b-	2dd
.	12B-	.	.
.	12d	.	.
.	12g	.	.
.	12b-	.	.
.	12g	.	.
.	12f#	8a	8cc
.	12d	.	.
.	.	16g	16b-
.	12f#	.	.
.	.	16a	16cc
=200	=200	=200	=200
12EE-	4g	2gg	2bb-
12GG	.	.	.
12BB-	.	.	.
12E-	4B-	.	.
12G	.	.	.
12E-	.	.	.
12BB-	4d	8ff	8aa-
12D	.	.	.
.	.	16ee-	16gg
12BB-	.	.	.
.	.	16ff	16aa-
=201	=201	=201	=201
4E-	2ee-	2gg	12gg
.	.	.	12ee-
.	.	.	12ff
4EE-	.	.	12gg
.	.	.	12ee-
.	.	.	12cc
4GG	8dd	8ff	12b
.	.	.	12g
.	16cc	16ee	.
.	.	.	12a
.	16dd	16ff	.
=202	=202	=202	=202
4C	2cc	4ee	12b-
.	.	.	12cc
.	.	.	12b-
4FF	.	8ee-	12a
.	.	.	12ff
.	.	16dd	.
.	.	.	12gg
.	.	16ee-	.
4BB-	[4b-	4dd	12aa-
.	.	.	12bb-
.	.	.	12aa-
=203	=203	=203	=203
4E-	8.b-]	8.ee-	12gg
.	.	.	12ee-
.	.	.	12cc
.	16e-	16g	.
4F	4f	12d	12ff
.	.	12f	12dd
.	.	12d	12b-
4FF	4F	12c	12ee-
.	.	12e-	12cc
.	.	12c	12a
=204	=204	=204	=204
12BB-	12B-	12d	4b-
12BB-	12b-	12dd	.
12BB-	12a	12cc	.
12BB-	12g	12b-	2ff
12BB-	12f	12a	.
12BB-	12e-	12g	.
12BB-	12d	12f	.
12BB-	12c	12e-	.
12BB-	12B-	12d	.
=205	=205	=205	=205
2.BB-	2.A	2.c	12ee-
.	.	.	12cc
.	.	.	12b-
.	.	.	12a
.	.	.	12g
.	.	.	12f
.	.	.	12e-
.	.	.	12d
.	.	.	12c
=206	=206	=206	=206
12BB-	12B-	12d	4B-
12BB-	12b-	12dd	.
12BB-	12a	12cc	.
12BB-	12g	12b-	2ff
12BB-	12f	12a	.
12BB-	12e-	12g	.
12BB-	12d	12f	.
12BB-	12c	12e-	.
12BB-	12B-	12d	.
=207	=207	=207	=207
2.BB-	2.A	3..c	12ee-
.	.	.	12cc
.	.	.	12b-
.	.	.	12a
.	.	.	12g
.	.	.	12f
.	.	.	12e-
.	.	12d	12d
.	.	12e-	12c
=208	=208	=208	=208
4BB-	4B-	4d	4B-
4B-	4b-	4dd 4f 4B-	4bb- 4b- 4d
4r	4r	4r	4r
==	==	==	==
*-	*-	*-	*-
!!!RWG1: This file contains only pitch and duration data.
!!!RWG2: Transposing instruments are not transposed.
!!!RWG3: Spines may have incompatible meters.
!!!RWG4: Durations of rests and tied notes may be interpreted.
!!!RWG: Key is interpreted using the Humdrum key tool.
!!!AFT: stage1
!!!END: 1997/04/15
!!!KEY: 325831477
!!!EMD: Converted from MuseData to Humdrum Dec 16, 2000, by Andreas Kornstaedt using muse2kern.
!!!EMD: Manual editing by Craig Sapp, Nov 2001
